icons/mindsdb.svg

<!--
  - The MIT License (MIT)
  -
  - Copyright (c) 2015-2024 Elior "Mallowigi" Boukhobza
  -
  - Permission is hereby granted, free of charge, to any person obtaining a copy
  - of this software and associated documentation files (the "Software"), to deal
  - in the Software without restriction, including without limitation the rights
  - to use, copy, modify, merge, publish, distribute, sublicense, and/or sell
  - copies of the Software, and to permit persons to whom the Software is
  - furnished to do so, subject to the following conditions:
  -
  - The above copyright notice and this permission notice shall be included in all
  - copies or substantial portions of the Software.
  -
  - THE SOFTWARE IS PROVIDED "AS IS", WITHOUT WARRANTY OF ANY KIND, EXPRESS OR
  - IMPLIED, INCLUDING BUT NOT LIMITED TO THE WARRANTIES OF MERCHANTABILITY,
  - FITNESS FOR A PARTICULAR PURPOSE AND NONINFRINGEMENT. IN NO EVENT SHALL THE
  - AUTHORS OR COPYRIGHT HOLDERS BE LIABLE FOR ANY CLAIM, DAMAGES OR OTHER
  - LIABILITY, WHETHER IN AN ACTION OF CONTRACT, TORT OR OTHERWISE, ARISING FROM,
  - OUT OF OR IN CONNECTION WITH THE SOFTWARE OR THE USE OR OTHER DEALINGS IN THE
  - SOFTWARE.
  -
  -->

<svg width="16px" height="16px" version="1.1" viewBox="0 0 24 24" xmlns="http://www.w3.org/2000/svg">
  <g fill="#26A69A" data-iconColor="MindsDB">
    <path
        d="M16.7205 12.0447C16.9677 13.8823 17.1971 15.6076 17.4352 17.3311C17.4635 17.5375 17.4183 17.6104 17.1743 17.622C15.7045 17.6911 15.7053 17.6967 15.174 16.4287C14.9528 15.9011 14.7372 15.3714 14.5016 14.8491C14.4498 14.7633 14.4306 14.6636 14.4473 14.5663C14.464 14.469 14.5156 14.3799 14.5936 14.3134C15.2888 13.5938 15.966 12.8548 16.7205 12.0447Z"
    />
    <path
        d="M8.0816 13.5849C8.29209 14.5964 8.49976 15.5472 8.6826 16.5021C8.73903 16.7977 8.99298 17.1733 8.77571 17.3732C8.58836 17.5449 8.17245 17.3019 7.85277 17.313C7.00346 17.3429 6.60815 16.9711 6.47018 16.1902C6.3892 15.7318 6.35336 15.4143 6.75882 15.0593C7.23212 14.5939 7.6739 14.1015 8.0816 13.5849Z"
    />
    <path
        d="M10.4798 15.43C10.4798 14.8619 10.4704 14.2938 10.4843 13.726C10.4896 13.503 10.423 13.4277 10.1688 13.4198C8.43447 13.3664 6.70049 13.3015 4.96689 13.2252C4.69461 13.2134 4.58711 13.2854 4.52926 13.5364C4.26178 14.6983 3.95817 15.8534 3.69689 17.0167C3.62352 17.3433 3.48978 17.4638 3.12326 17.4267C2.71657 17.3874 2.30715 17.3786 1.89895 17.4004C1.5914 17.4148 1.53214 17.2952 1.53666 17.0456C1.56318 15.3008 1.6024 13.5561 1.58435 11.8118C1.58101 11.2751 1.77332 10.7532 2.12977 10.3317C3.08911 9.08899 4.01319 7.82395 4.94263 6.56207C4.99276 6.47566 5.07166 6.40677 5.16743 6.36579C5.26321 6.32481 5.37068 6.31394 5.47365 6.33483C8.93916 6.68041 12.406 7.01521 15.8741 7.33923C16.091 7.36347 16.2982 7.43728 16.4771 7.55411C18.5408 8.80415 20.6009 10.0587 22.675 11.2935C22.9854 11.4776 22.9939 11.5828 22.6956 11.7493C22.6314 11.7816 22.574 11.8245 22.5263 11.876C21.929 12.5953 21.2284 12.563 20.3819 12.2442C19.3588 11.86 18.2798 11.6051 17.2307 11.2785C17.1309 11.2408 17.0226 11.2265 16.9155 11.2369C16.8083 11.2473 16.7055 11.2821 16.6162 11.3382C15.6512 11.8968 14.6818 12.4486 13.708 12.9935C13.6202 13.0373 13.5453 13.1004 13.4897 13.1773C13.4341 13.2542 13.3995 13.3426 13.3888 13.4348C13.1752 14.6341 12.9309 15.8281 12.7345 17.0306C12.6781 17.3751 12.5463 17.4843 12.1789 17.4603C11.7124 17.4346 11.2446 17.4339 10.778 17.4582C10.5012 17.4698 10.4304 17.3793 10.4394 17.1334C10.4575 16.5656 10.4451 15.997 10.4451 15.4289L10.4798 15.43Z"
    />
  </g>
</svg>

<svg xmlns="http://www.w3.org/2000/svg" viewBox="0 0 24 24"><g fill="#26a69a" data-iconColor="MindsDB"><path d="M16.72 12.045c.248 1.837.477 3.563.715 5.286.029.207-.017.28-.26.291-1.47.07-1.47.075-2.001-1.193-.221-.528-.437-1.058-.672-1.58a.41.41 0 0 1 .092-.536c.695-.72 1.372-1.458 2.127-2.268m-8.639 1.54c.21 1.011.418 1.962.6 2.917.057.296.311.671.094.871-.188.172-.604-.071-.923-.06-.85.03-1.245-.342-1.383-1.123-.08-.458-.117-.776.289-1.13a16 16 0 0 0 1.323-1.475"/><path d="M10.48 15.43c0-.568-.01-1.136.004-1.704.006-.223-.061-.298-.315-.306a394 394 0 0 1-5.202-.195c-.272-.012-.38.06-.438.311-.267 1.162-.57 2.317-.832 3.48-.073.327-.207.448-.574.41A8 8 0 0 0 1.9 17.4c-.308.015-.367-.105-.362-.354.026-1.745.065-3.49.047-5.234a2.27 2.27 0 0 1 .546-1.48c.96-1.243 1.883-2.508 2.813-3.77a.47.47 0 0 1 .224-.196.5.5 0 0 1 .307-.031q5.198.518 10.4 1.004c.217.024.424.098.603.215 2.064 1.25 4.124 2.505 6.198 3.74.31.184.319.289.02.455a.6.6 0 0 0-.169.127c-.597.72-1.298.687-2.144.368-1.023-.384-2.102-.639-3.151-.966a.7.7 0 0 0-.615.06q-1.447.838-2.908 1.656a.6.6 0 0 0-.218.183.55.55 0 0 0-.101.258c-.214 1.2-.458 2.393-.654 3.596-.057.344-.189.453-.556.43a13 13 0 0 0-1.401-.003c-.277.012-.348-.079-.339-.325.018-.567.006-1.136.006-1.704z"/></g></svg>
